!!!!SEGMENT: pl-kc--40102-iii-1-saf--001-022_zielenski-mikolaj--offertoria-totius-anni-in-festo-ascensionis-domini-ascendit-deus-in-iubilatione.krn
!!!cenid: 16xx:1500
!!!COM: Zieleński, Mikołaj
!!!COM-rismID: pe30013481
!!!CDT: <1611->1611
!!!CNT: Polish
!!!GTL: Offertoria totius anni
!!!OTL: In festo Ascensionis Domini/Ascendit Deus in iubilatione
!!!OMV: 022
!!!PDT: 1611
!!!AGN:
!!!SMS-siglum: PL-Kc
!!!SMS-shelfmark: 40102 III/1 Saf.
!!!SMS-shelfwork: 001-022 G
!!!SMS-variant:
!!!SMS-altvar:
!!!NIFC-rismSourceID: 990069886
!!!NIFC-rismChildID: 990069886
!!!NIFC-islandoraID:
!!!URL-pdf-islandora:
!!!URL-scan: https://cyfrowe.mnk.pl/dlibra/publication/24235/edition/23926/content?ref=desc @EN{Scan on The National Museum in Krakow Website} @PL{Skany w portalu Biblioteka Cyfrowa Muzeum Narodowego w Krakowie}
!!!ONB-nifc: UWAGA: str. 21. Uwaga: W xml metrum 2/1 do źródłowego C| i odpowiednio 3/1 do 3/2
!!!AIN: 4 organ
!!!key:
**kern	**kern	**kern	**kern
*group1	*group1	*group1	*group1
*part4	*part3	*part2	*part1
*staff4	*staff3	*staff2	*staff1
*I""Organo	*I	*I	*
*Iorgan	*Iorgan	*Iorgan	*Iorgan
*ICklav	*ICklav	*ICklav	*ICklav
*clefF5	*clefC1	*clefC4	*clefG2
*k[]	*k[]	*k[]	*k[]
*C:	*C:	*C:	*C:
*M2/1	*M2/1	*M2/1	*M2/1
*met(C|)	*met(C|)	*met(C|)	*met(C|)
=1	=1	=1	=1
!LO:TX:t=P:problem=all/middle&colon; global	!LO:TX:t=P:problem=all/middle&colon; global	!LO:TX:t=P:problem=all/middle&colon; global	!LO:TX:t=P:problem=all/middle&colon; global
!LO:TX:t=P:problem=all\middle&colon; global	!LO:TX:t=P:problem=all\middle&colon; global	!LO:TX:t=P:problem=all\middle&colon; global	!LO:TX:t=P:problem=all\middle&colon; global
!	!	!LO:TX:a:t=Aſcendit Deus in iubilatione.	!LO:TX:a:t=In feſto Aſcenſionis Domini. A S.
1r	1A	00r	00r
1G	2B/	.	.
.	2B/	.	.
=2-	=2-	=2-	=2-
1GG	1d	.	.
2BB/	1d	.	.
2BB/	.	.	.
=3	=3	=3	=3
1D	2A/	00r	00r
.	2.d/	.	.
2GG/	.	.	.
.	4c/	.	.
2G.\	4B/	.	.
.	4A/	.	.
=4-	=4-	=4-	=4-
.	2B/	.	.
4F\	.	.	.
4E\	2e/	.	.
4D\	.	.	.
2C\	1g	.	.
4BB/	.	.	.
4AA/	.	.	.
=5	=5	=5	=5
2GG/	2b\	00r	00r
2G\	2b\	.	.
2G\	1dd	.	.
2F#X\	.	.	.
=6-	=6-	=6-	=6-
1G	1.g	.	.
2.C\	.	.	.
.	4r	.	.
4C\	4cc\	.	.
=7	=7	=7	=7
4.G\	4.b\	00r	00r
8G\	8b\	.	.
4G\	4b\	.	.
4E\	4cc#X\	.	.
2D\	2dd\	.	.
4E\	4b\	.	.
4C\	4cc#\	.	.
=8-	=8-	=8-	=8-
4.D\	4.a\	.	.
8D\	8a\	.	.
4D\	4a\	.	.
4D\	4dd\	.	.
2AA/	2cc#X\	.	.
4D\	4dd\	.	.
4GG/	4b\	.	.
=9	=9	=9	=9
4.C\	4.cc\	0r	0r
8C\	8cc\	.	.
4C\	4cc\	.	.
4GG/	4b\	.	.
0D	4a\	.	.
.	4d/	.	.
.	2.g/	.	.
=10-	=10-	=10-	=10-
.	.	1r	0r
.	8f#X/	.	.
.	8e/	.	.
.	2f#/	.	.
1GG	1g	2r	.
.	.	2G/	.
=11	=11	=11	=11
1GG	1g	2B\	1g
.	.	2B\	.
1GG	1g	1G	2b/
.	.	.	2b/
=12-	=12-	=12-	=12-
0r	0r	2B\	2.dd\
.	.	2B\	.
.	.	.	8cc\
.	.	.	8b\
.	.	1d	4a/
.	.	.	4b/
!	!	!	!LO:N:vis=4
.	.	.	2a/
=13	=13	=13	=13
0r	0r	1G	2b/
.	.	.	2dd\
.	.	1C	2ee\
.	.	.	2ee\
=14-	=14-	=14-	=14-
0r	0r	2E/	1gg
.	.	2E/	.
.	.	(<1G	2gg\
.	.	.	4dd\
.	.	.	4ee\
=15-	=15-	=15-	=15-
0r	0r	1D)	4ff\
.	.	.	4ee\
.	.	.	4dd\
.	.	.	4cc\
.	.	1E	2b/
.	.	.	2cc\
=16	=16	=16	=16
0r	0r	2r	2ee\
.	.	2C/	2ee\
.	.	2E/	2.gg\
.	.	2E/	.
.	.	.	8ff\
.	.	.	8ee\
=17	=17	=17	=17
0r	0r	1G	4dd\
.	.	.	4cc\
.	.	.	4dd\
.	.	.	4ee\
.	.	2.D/	2.ff\
.	.	4D/	4ff\
=18-	=18-	=18-	=18-
0r	0r	4.F/	4.cc\
.	.	8F/	8cc\
.	.	4F/	4cc\
.	.	4C/	4ee\
.	.	2G/	2dd\
.	.	4C/	4cc\
.	.	4C/	4ee\
=19	=19	=19	=19
0r	0r	4.G/	4.dd\
.	.	8G/	8dd\
.	.	4G/	4dd\
.	.	4D/	4ff\
.	.	2A/	2ee\
.	.	4A/	4ee\
.	.	4E/	4gg\
=20-	=20-	=20-	=20-
0r	0r	4.F/	4.ff\
.	.	8F/	8ff\
.	.	4F/	4ff\
.	.	4C/	4ee\
.	.	(<1G	2dd\
.	.	.	[y2cc\
*custos:B	*custos:g	*custos:G	*custos:b
!LO:TX:t=P:problem=błędny kustosz	!	!	!
!LO:LB:g=original	!LO:LB:g=original	!LO:LB:g=original	!LO:LB:g=original
=21	=21	=21	=21
!	!	!	!LO:N:xstem:cue
2r	2r	1G)	4cc]
.	.	.	8b/
.	.	.	8a/
2GG/	2g/	.	2b/
2C\	2g/	1C	1cc
2C\	2g/	.	.
=22-	=22-	=22-	=22-
1FF	1a	2r	2r
.	.	2F/	2cc\
1C	1g	2G/	2ee\
.	.	2C/	2ee\
=23	=23	=23	=23
2r	2r	2E/	1gg
2GG/	2b\	4D/	.
.	.	4C/	.
2BB/	2dd\	1D	1dd
2BB/	2dd\	.	.
=24-	=24-	=24-	=24-
1D	1a	2r	2r
.	.	2D/	2dd\
1DD	1dd	2D/	2ff\
.	.	2d\	2ff\
=25	=25	=25	=25
2r	2r	2.A/	1ee
2AA/	2cc\	.	.
.	.	8G/	.
.	.	8F/	.
2C\	2cc\	1E	1ee
2C\	2g/	.	.
=26-	=26-	=26-	=26-
1GG	1b	2r	2r
.	.	2G/	2dd\
2.DD/	2a\	4.F/	4.ff\
.	.	8F/	8ff\
.	2dd\	4F/	4ff\
4DD/	.	4D/	4ff\
=27	=27	=27	=27
4.AA/	4.cc\	1E	1ee
8AA/	8cc\	.	.
4AA/	4cc\	.	.
4AA/	4cc\	.	.
1C	1cc	2.E/	2.ee\
.	.	4E/	4cc\
=28-	=28-	=28-	=28-
2FF/	2a\	4.F/	4.ff\
.	.	8F/	8ff\
2r	2r	4F/	4ff\
.	.	4C/	4ee\
2GG/	2g/	2G/	2dd\
4.C\	4.e/	2C/	2cc\
8C\	8e/	.	.
=29	=29	=29	=29
4C\	4e/	2r	2r
4GG/	4g/	.	.
2D\	2f#X/	2D/	2dd\
2GG/	2g/	4.G/	4.dd\
.	.	8G/	8dd\
2r	2r	4G/	4dd\
.	.	4D/	4ff\
=30-	=30-	=30-	=30-
2r	2r	2A/	2ee\
4r	4r	4D/	4dd\
4DD/	4a\	4D/	4dd\
4.GG/	4.b\	4.D/	4.dd\
8GG/	8b\	8D/	8dd\
4GG/	4b\	4D/	4dd\
4GG/	4b\	4D/	4dd\
=31	=31	=31	=31
2CC/	2cc\	2C/	2ee\
4FF/	4cc\	4C/	4cc\
4FF/	4a\	4C/	4cc\
4.DD/	4.dd\	4.D/	4.ff\
8DD/	8dd\	8D/	8ff\
4DD/	4dd\	4D/	4ff\
4DD/	4dd\	4D/	4ff\
=32-	=32-	=32-	=32-
2GG/	2b\	2D/	2dd\
4GG/	4b\	4D/	4dd\
4GG/	4b\	4D/	4dd\
4.EE/	4.b\	4.E/	4.gg\
8EE/	8b\	8E/	8gg\
4CC/	4cc\	4E/	4gg\
4CC/	4cc\	[<4c\	4ee\
=33	=33	=33	=33
0DD	2a\	4c\]	0dd
.	.	8B\	.
.	.	8A\	.
.	2d/	2B\	.
.	1a	1A	.
=34-	=34-	=34-	=34-
1.GG	0b	[<0G	[<0dd
2GG/	.	.	.
=35	=35	=35	=35
2.G\	2r	0G]	1dd]
.	2d/	.	.
4F\	.	.	.
4E\	2g/	.	1r
4D\	.	.	.
1C\	2g/	.	.
=36-	=36-	=36-	=36-
.	2.cc\	0r	0r
2.F\	.	.	.
.	4b\	.	.
.	4a\	.	.
4G\	4g\	.	.
4F\	[<2a\	.	.
4E\	.	.	.
=37	=37	=37	=37
2D\	2a]	0r	1r
2D\	4g/	.	.
.	4f/	.	.
0.C	4e/	.	2r
.	4d/	.	.
.	2e/	.	2c/
=38-	=38-	=38-	=38-
.	2.e/	1r	2g/
.	.	.	2cc\
.	4f/	.	.
.	1g	2r	2.gg\
.	.	2C/	.
.	.	.	4ff\
=39	=39	=39	=39
0r	0r	2.c\	4ee\
.	.	.	4dd\
.	.	.	1ee
.	.	4B\	.
.	.	4A/	.
.	.	4G/	.
.	.	4F/	2.ff\
.	.	4E/	.
=40-	=40-	=40-	=40-
0r	0r	2D/	.
.	.	.	4ee\
.	.	2B-X\	2dd\
.	.	2.A/	2cc\
.	.	.	2.ee\
.	.	4G/	.
=41	=41	=41	=41
1r	0r	2G/	.
.	.	.	4dd\
.	.	4F/	2.dd\
.	.	4E/	.
2r	.	2A/	.
.	.	.	8cc#X\
.	.	.	8b\
2AA/	.	2A/	2cc#\
=42-	=42-	=42-	=42-
2.D\	2r	0D	0dd
.	2A/	.	.
4C\	.	.	.
4BB/	2.d/	.	.
4AA/	.	.	.
(<2GG/	.	.	.
.	4c/	.	.
*custos:BB	*custos:B	*custos:G	*custos:dd
!LO:TX:t=P:problem=błędny kustosz	!	!	!
!LO:LB:g=original	!LO:LB:g=original	!LO:LB:g=original	!LO:LB:g=original
=43	=43	=43	=43
2GG/)	2B/	00r	00r
2.C\	2g\	.	.
.	2.cc\	.	.
4BB/	.	.	.
4AA/	.	.	.
4GG/	4b\	.	.
=44-	=44-	=44-	=44-
2FF/	4a\	.	.
.	4g/	.	.
2GG/	2.g/	.	.
2D\	.	.	.
.	8f#X/	.	.
.	8e/	.	.
2D\	2f#/	.	.
=45	=45	=45	=45
*M3/1	*M3/1	*M3/1	*M3/1
0.GG	0.g	0.r	0.r
=46-	=46-	=46-	=46-
0.r	0.r	1G	1dd
.	.	1G	1dd
.	.	1G	1dd
=47-	=47-	=47-	=47-
00.r	00.r	2c\	0ee
.	.	2d\	.
.	.	2c\	.
.	.	2B\	.
.	.	2A/	1ee
.	.	2G/	.
=48-	=48-	=48-	=48-
.	.	0F	1ff
.	.	.	1ff
.	.	1D	1ff
=49	=49	=49	=49
00.r	00.r	1G	2dd\
.	.	.	2ee\
.	.	1G	2dd\
.	.	.	2cc\
.	.	1G	2b/
.	.	.	2a/
=50-	=50-	=50-	=50-
.	.	2E/	0g
.	.	2F/	.
.	.	2G/	.
.	.	2F/	.
.	.	2E/	1g
.	.	2D/	.
=51-	=51-	=51-	=51-
00.r	00.r	0C	1gg
.	.	.	1gg
.	.	1C	1gg
=52-	=52-	=52-	=52-
.	.	1c	2ee\
.	.	.	2ff\
.	.	1c	2gg\
.	.	.	2ff\
.	.	1c	2ee\
.	.	.	2dd\
=53	=53	=53	=53
00.r	00.r	2A/	0ee
.	.	2B\	.
.	.	2c\	.
.	.	2B\	.
.	.	2A/	1ee
.	.	2G/	.
=54	=54	=54	=54
.	.	1F	1ff
.	.	1F	1ff
.	.	1D	1ff
=55-	=55-	=55-	=55-
00.r	00.r	0.G	2dd\
.	.	.	2ee\
.	.	.	2dd\
.	.	.	2cc\
.	.	.	2b/
.	.	.	2g/
=56-	=56-	=56-	=56-
.	.	1E	1cc
.	.	0D	0dd
=57	=57	=57	=57
*M2/1	*M2/1	*M2/1	*M2/1
*met(C|)	*met(C|)	*met(C|)	*met(C|)
2r	2r	0C	0ee
2CC/	2c/	.	.
2.C\	2e/	.	.
.	2g/	.	.
4BB/	.	.	.
=58-	=58-	=58-	=58-
4AA/	2.cc\	0r	0r
4GG/	.	.	.
1FF	.	.	.
.	4b\	.	.
.	2a\	.	.
2FF/	2a\	.	.
=59	=59	=59	=59
1C	1g	2r	2r
.	.	2C/	2ee\
1r	1r	2.c\	2.ee\
.	.	4B\	4dd\
=60-	=60-	=60-	=60-
1r	1r	2A/	2cc\
.	.	2A/	2cc\
2r	2r	2G/	2b/
2GG/	2dd\	2D/	2dd\
=61-	=61-	=61-	=61-
1.DD	1.dd	1.D	2.ff\
.	.	.	4ee\
.	.	.	2dd\
2DD/	2a\	2D/	2dd\
=62-	=62-	=62-	=62-
*M3/1	*M3/1	*M3/1	*M3/1
0.AA	0.cc#X	0.E	0.cc#X
=63-	=63-	=63-	=63-
1DD	1dd	0.r	0.r
1D	1dd	.	.
1D	1a	.	.
=64	=64	=64	=64
2GG/	0b	1G	1dd
2AA/	.	.	.
2BB/	.	1G	1dd
2AA/	.	.	.
2BB/	1b	1G	1dd
2GG/	.	.	.
=65-	=65-	=65-	=65-
0C	0.r	0C	2cc\
.	.	.	2dd\
.	.	.	2ee\
.	.	.	2dd\
1C	.	1C	2ee\
.	.	.	2cc\
=66-	=66-	=66-	=66-
1FF	1cc	1C	1ff
1FF	1cc	1C	1ff
1FF	1cc	1C	1ff
=67-	=67-	=67-	=67-
0CC	0.cc	2C/	0ee
.	.	2D/	.
.	.	2E/	.
.	.	2D/	.
1CC	.	2E/	1ee
.	.	2C/	.
=68	=68	=68	=68
1.GG	1b	2D/	1dd
.	.	2C/	.
.	1.dd	0BB	1.gg
2FF/	.	.	.
1EE	.	.	.
.	2cc\	.	2ff\
=69-	=69-	=69-	=69-
1AAA	0cc	1C	1ee
0GG	.	0D	0dd
.	1b	.	.
=70-	=70-	=70-	=70-
*M2/1	*M2/1	*M2/1	*M2/1
*met(C|)	*met(C|)	*met(C|)	*met(C|)
1CC	1cc	2.C/	2ee\
.	.	.	2ee\
.	.	4c\	.
1r	1r	4.F/	4.ff\
.	.	8G/	8dd\
.	.	4E/	4ee\
.	.	4F/	4cc\
=71	=71	=71	=71
0r	0r	4.D/	4.dd\
.	.	8D/	8ff\
.	.	4A/	4ee\
.	.	4F/	4ff\
.	.	2G/	4ee\
.	.	.	4dd\
.	.	2B-X\	2.dd\
=72-	=72-	=72-	=72-
1r	1r	1A	.
.	.	.	8cc#X\
.	.	.	8b\
.	.	.	2cc#\
2r	2r	1D	1dd
2D\	2f#X/	.	.
*custos:D	*custos:g	*custos:D	*custos:dd
!LO:TX:t=P:problem=błędny kustosz	!	!	!
!LO:LB:g=original	!LO:LB:g=original	!LO:LB:g=original	!LO:LB:g=original
=73	=73	=73	=73
4.BB/	4.g/	0r	0r
8C\	8e/	.	.
4AA/	4a\	.	.
4D\	4f#X/	.	.
4.GG/	4.g/	.	.
8GG/	8b\	.	.
4D\	4a\	.	.
4BB/	4b\	.	.
=74-	=74-	=74-	=74-
2C\	4a\	1r	1r
.	4g/	.	.
2E\	2.g/	.	.
1D	.	2r	2r
.	8f#X/	.	.
.	8e/	.	.
.	2f#/	2D/	2dd\
=75	=75	=75	=75
2GG/	2g/	4.D/	4.dd\
.	.	8G/	8b/
4r	4r	2C/	2ee\
4DD/	4cc\	.	.
4.GG/	4.b\	2r	2r
8GG/	8g/	.	.
2DD/	2a\	4r	4r
.	.	4D/	4dd\
=76-	=76-	=76-	=76-
2r	2r	4.D/	4.ff\
.	.	8D/	8dd\
4r	4r	4A/	4ee\
4AA/	4cc\	4E/	4ee\
4.EE/	4.b\	4.E/	4.ee\
8EE/	8b\	8E/	8ee\
4AA/	4a\	4E/	4cc#X\
4AA/	4a\	4E/	4cc#\
=77	=77	=77	=77
4.DD/	4.a\	4.D/	4.dd\
8DD/	8a\	8D/	8dd\
4GG/	4b\	4D/	4dd\
4GG/	4b\	4D/	4dd\
2.CC/	2.cc\	2.C/	2.ee\
4CC/	4cc\	4C/	4ee\
=78-	=78-	=78-	=78-
2.FF/	2a\	1C	2cc\
.	1a	.	2.ff\
4EE/	.	.	.
1DD	.	1D	.
.	.	.	4ee\
.	2a\	.	2.dd\
=79	=79	=79	=79
2GG/	0g	2r	.
.	.	.	4cc\
2CC/	.	2E/	2.cc\
1GG	.	1D	.
.	.	.	8b/
.	.	.	8a/
.	.	.	2b/
=80-	=80-	=80-	=80-
2CC/	2g/	2C/	2cc\
1C	1cc	1E	4cc\
.	.	.	4dd\
.	.	.	4ee\
.	.	.	4ff\
2BB/	2dd\	2D/	2gg\
=81	=81	=81	=81
1C	0cc	2.E/	2gg\
.	.	.	2ee\
.	.	4D/	.
0.CC	.	0C	2.ee\
.	.	.	4dd\
=82-	=82-	=82-	=82-
.	0g	.	4cc\
.	.	.	4g/
.	.	.	4cc\
.	.	.	4dd\
.	.	2G/	2ee\
.	.	2G/	2cc\
=83-	=83-	=83-	=83-
00GG	00g	2.D/	00dd
.	.	4C/	.
.	.	0.Dl	.
==	==	==	==
*-	*-	*-	*-
!!!system-decoration: g1
!!!RDF**kern: > = above
!!!RDF**kern: < = below
!!!RDF**kern: l = terminal long
!!!ENC: Berenika Jozajtis
!!!END: 2021-12-13
!!!EED: Jędrzej Mróz
!!!EEV: 2021-12-20
!!!YEC: Copyright 2022 Narodowy Instytut Fryderyka Chopina (https://polishscores.org)
!!!YEM: License CC-BY-4.0 (https://creativecommons.org/licenses/by/4.0)
